svgs/light/school-flag.svg

<svg xmlns="http://www.w3.org/2000/svg" viewBox="0 0 576 512"><!--! Font Awesome Pro 6.4.0 by @fontawesome - https://fontawesome.com License - https://fontawesome.com/license (Commercial License) Copyright 2023 Fonticons, Inc. --><path d="M304 64h80V32H304V64zM272 16c0-8.8 7.2-16 16-16H400c8.8 0 16 7.2 16 16V80c0 8.8-7.2 16-16 16H315.5l89.6 64H512c35.3 0 64 28.7 64 64V448c0 35.3-28.7 64-64 64H352 320 256 224 64c-35.3 0-64-28.7-64-64V224c0-35.3 28.7-64 64-64H170.9L272 87.8V64 16zm48 400c0-17.7-14.3-32-32-32s-32 14.3-32 32v64h64V416zm32 64H512c17.7 0 32-14.3 32-32V224c0-17.7-14.3-32-32-32H400c-3.3 0-6.6-1-9.3-3L288 115.7 185.3 189c-2.7 1.9-6 3-9.3 3H64c-17.7 0-32 14.3-32 32V448c0 17.7 14.3 32 32 32H224V416c0-35.3 28.7-64 64-64s64 28.7 64 64v64zM256 240a32 32 0 1 0 64 0 32 32 0 1 0 -64 0zm32 64a64 64 0 1 1 0-128 64 64 0 1 1 0 128zM64 256c0-17.7 14.3-32 32-32h32c17.7 0 32 14.3 32 32v32c0 17.7-14.3 32-32 32H96c-17.7 0-32-14.3-32-32V256zm64 0H96v32h32V256zm320-32h32c17.7 0 32 14.3 32 32v32c0 17.7-14.3 32-32 32H448c-17.7 0-32-14.3-32-32V256c0-17.7 14.3-32 32-32zm0 32v32h32V256H448zM64 384c0-17.7 14.3-32 32-32h32c17.7 0 32 14.3 32 32v32c0 17.7-14.3 32-32 32H96c-17.7 0-32-14.3-32-32V384zm64 0H96v32h32V384zm320-32h32c17.7 0 32 14.3 32 32v32c0 17.7-14.3 32-32 32H448c-17.7 0-32-14.3-32-32V384c0-17.7 14.3-32 32-32zm0 32v32h32V384H448z"/></svg>

<svg xmlns="http://www.w3.org/2000/svg" viewBox="0 0 576 512"><!--! Font Awesome Pro 6.3.0 by @fontawesome - https://fontawesome.com License - https://fontawesome.com/license (Commercial License) Copyright 2023 Fonticons, Inc. --><path d="M352 240C352 275.3 323.3 304 288 304C252.7 304 224 275.3 224 240C224 204.7 252.7 176 288 176C323.3 176 352 204.7 352 240zM288 272C305.7 272 320 257.7 320 240C320 222.3 305.7 208 288 208C270.3 208 256 222.3 256 240C256 257.7 270.3 272 288 272zM64 256C64 238.3 78.33 224 96 224H128C145.7 224 160 238.3 160 256V288C160 305.7 145.7 320 128 320H96C78.33 320 64 305.7 64 288V256zM128 256H96V288H128V256zM480 224C497.7 224 512 238.3 512 256V288C512 305.7 497.7 320 480 320H448C430.3 320 416 305.7 416 288V256C416 238.3 430.3 224 448 224H480zM448 288H480V256H448V288zM64 384C64 366.3 78.33 352 96 352H128C145.7 352 160 366.3 160 384V416C160 433.7 145.7 448 128 448H96C78.33 448 64 433.7 64 416V384zM128 384H96V416H128V384zM480 352C497.7 352 512 366.3 512 384V416C512 433.7 497.7 448 480 448H448C430.3 448 416 433.7 416 416V384C416 366.3 430.3 352 448 352H480zM448 416H480V384H448V416zM272 16C272 7.164 279.2 0 288 0H400C408.8 0 416 7.164 416 16V80C416 88.84 408.8 96 400 96H315.5L405.1 160H512C547.3 160 576 188.7 576 224V448C576 483.3 547.3 512 512 512H64C28.65 512 0 483.3 0 448V224C0 188.7 28.65 160 64 160H170.9L272 87.77V16zM384 64V32H304V64H384zM320 416C320 398.3 305.7 384 288 384C270.3 384 256 398.3 256 416V480H320V416zM512 480C529.7 480 544 465.7 544 448V224C544 206.3 529.7 192 512 192H400C396.7 192 393.4 190.1 390.7 189L288 115.7L185.3 189C182.6 190.1 179.3 192 176 192H64C46.33 192 32 206.3 32 224V448C32 465.7 46.33 480 64 480H224V416C224 380.7 252.7 352 288 352C323.3 352 352 380.7 352 416V480H512z"/></svg>
